X: 606
T: Zhu niangjia
%%abc-version 2.0
%%abcx-abcm2ps-target-version 5.9.1 (29 Sep 2008)
%%abc-creator hum2abc beta
%%abcx-conversion-date 2013/10/02 07:52:30
%%abc-edited-by Helmut Schaffrath
%%humdrum-veritas 557278277
%%humdrum-veritas-data 4218876099
%%continueall 1
%%barnumbers 0
L: 1/8
M: 2/4
K: F
c> d c B [I:setbarnb 1]| 
G4 | 
f e/ d/ c B | 
G4 | 
c3c | 
d2d2 | 
c2c B | 
c2B G | 
F G F D | 
C4 | 
F G B B | 
c B G F | 
E2B G | 
F G F E | 
C C F G | 
C4 |]  



